assets/icons/EmailIcon.svg

<svg width="16" height="16" viewBox="0 0 16 16" fill="none" xmlns="http://www.w3.org/2000/svg">
<g clip-path="url(#clip0_37_2377)">
<path d="M10.606 8.08208L16 11.4921V4.52808L10.606 8.08208Z" fill="#029F59"/>
<path d="M0 4.52808V11.4921L5.394 8.08208L0 4.52808Z" fill="#029F59"/>
<path d="M15 2.5H0.999998C0.500998 2.5 0.104999 2.872 0.0299988 3.351L7.99999 8.602L15.97 3.351C15.895 2.872 15.499 2.5 15 2.5Z" fill="#029F59"/>
<path d="M9.68999 8.68606L8.27499 9.61806C8.19099 9.67306 8.09599 9.70006 7.99999 9.70006C7.90399 9.70006 7.80899 9.67306 7.72499 9.61806L6.30999 8.68506L0.0319824 12.6561C0.108982 13.1311 0.502983 13.5001 0.999983 13.5001H15C15.497 13.5001 15.891 13.1311 15.968 12.6561L9.68999 8.68606Z" fill="#029F59"/>
</g>
<defs>
<clipPath id="clip0_37_2377">
<rect width="16" height="16" fill="white"/>
</clipPath>
</defs>
</svg>

<svg width="16" height="16" fill="none" xmlns="http://www.w3.org/2000/svg"><g clip-path="url(#a)" fill="#029F59"><path d="M10.606 8.082 16 11.492V4.528l-5.394 3.554ZM0 4.528v6.964l5.394-3.41L0 4.528ZM15 2.5H1a.988.988 0 0 0-.97.851L8 8.602l7.97-5.251A.988.988 0 0 0 15 2.5ZM9.69 8.686l-1.415.932a.5.5 0 0 1-.55 0L6.31 8.685.032 12.656A.986.986 0 0 0 1 13.5h14a.986.986 0 0 0 .968-.844L9.69 8.686Z"/></g><defs><clipPath id="a"><path fill="#fff" d="M0 0h16v16H0z"/></clipPath></defs></svg>
